X:1
T:Ludwig Senfl
T:Lust hab ich g'habt zur Musica
%%score [ 1 2 3 4 ]
L:1/8
Q:1/4=120
M:2/2
K:F
V:1 treble nm="MusicXML Part"
V:2 treble nm="MusicXML Part"
V:3 treble-8 nm="MusicXML Part"
V:4 bass nm="MusicXML Part"
V:1
{[Dg]} d8 | c4 F4 | G6 A2 | B4 c4 |"^5" d4 z2 f2 | ed cB A4 | z2 d2 cB AG | F2 f2 ed cB | %8
w: Lust|hab ich|g'habt zur|Mu- si-|ca, zur|Mu ­ si ­ ca,|zur Mu ­ si ­|ca, zur Mu ­ si ­|
w: von|erst "ut|re mi|fa sol|la, a||a * * * *|* a * * * *|
 A4 z2 d2 |"^10" cB AG F2 f2 | ed cB A2 A2 | B3 G A2 e2 | f3 d e2 A2 x2 |"^14" B2 G4 ^F2 x7 |1 %14
w: ca, zur|Mu ­ si ­ ca, zur|Mu ­ si ­ ca von|Ju- gend auf, von|Ju- gend auf wie|noch * bis-|
w: * a|* * * * * a|* * * * " ge-|übt, da- nach, ge-|übt, da- nach durch|wei- * ter|
 G8 :|2 G4 z2 G2 ||"^17" G2 G2 E2 e2 | e2 e2 c4 x2 | z2 c2 c2 c2 x2 |"^20" A4 z2 A3 | G F2 E4 x2 | %21
w: her,|Lehr kam|es da- zu, kam|es da- zu,|kam es da-|zu, daß|* * ich|
w: |||||||
 D2 d3 c B2 x | A2 d3 c B2 | A2 d2 z2 d3 |"^25" c B2 A2 d3 | c B2 A2 d2 x | z2 d3 c A2 | %27
w: kein Ruh * *|mehr ha- * ­|ben mocht, daß|* * ich kein|* * * Ruh|ha- * ben|
w: ||||||
 B4 z2 G2 x2 | G3 A Bc d4 |"^30" c4 =B2 c8 | z2 A2 A2 B2 | c2 A4 G2 | A4 z2 A2 x2 |"^35" A2 G2 A4 | %34
w: mocht, denn|nur * * * *|* im G'sang.|Da half nichts|für, half nichts|für: aus|dem er- folgt|
w: |||||||
 z2 d2 efge | f3 e dcBA | GABG A3 G | FE D2 EFGE |"^40" FGAB c3 B | A2 G4 ^F2 | G4 z2 G3 | %41
w: der erst' * * *|||||   An- *|fang, An-|
w: |||||||
 A B2 G3 A B8 |] %42
w: * * fang * *|
w: |
"^4.Wie er mit seinem Namen g'nannt,das tu ich nachher melden schon.Er ist in aller Welt bekannt.Lieblich an Kunst, fröhlich im Tonsein Melodeiwar g'stellt gar frei.Darob man sich verwundern tät.Es war gut Dingzu singen 'ring,künstlich dazu die Gnad' es hätt.""^5.Isaac, das war der Name sein.Halt wohl, es werd vergessen nit,wie er sein Kompositz so feinund klar hat g'setzt, dazu auch mitMensur geziert.Dadurch probiert,noch heutig's Tags sein Lob und Kunstvorhanden ist.Herr Jesus Christ,teil' ihm dort mit göttliche Gunst!""^6.Gern wollt ich Gott drum dankbar sein,wenn ich nur das vollbringen könnt,wie jeder soll. Es steht gar fein,daß man ihn lob', weil er ein'm gönnt,zu lernen hie,was ein'r vor niehätt mögen von ihm selbst verstahn,das mir erzeigtund zugeeigtmit Gnaden ward durch diesen Mann.""^7.Sein Fleiß, der ward an mir erkennt,deshalb trug mir der Kaiser Huld.Denn, weil man mich sein' Schüler nennt,mußt ich erfüllen ohn' mein' Schuldden Chorg'sang sein,wiewohl da meinerlernte Kunst war viel zu schwach.Doch tät ich's best',so viel ich weßt',mit Arbeit groß, die ich noch mach'.""^8.Erkenn' erst jetzt, was mir gebricht,und seh, daß all's aus Gnaden kommtvon oben 'rab. Drum, wenn ein'r spricht,er könnt so viel, wie wenig frommtihm solches Lob!Tut er ein' Prob',""^empfind't sein Unvollkommenheit.Ernst wird er insein'm hohen Sinn,dazu ihm all sein' Kunst verleid't.""^9.Nachdem ich dann derselben Kunstergeben bin, daß ich verricht'mein' Dienst damit, so wärs umsunstwo ich nicht hielt, es würd für nicht'geachtet hiealls was ich jehätt g'macht gleichwohl mit höchstem Fleíß,wenn ich darin nicht hätt den Sinn,daß ich Gott gäb' den höchsten Preis.""^10.Nun dank ich Gott, d'rum daß ich hiedermaßen bin versehen wohl.Denn wer ihn bitt', den läßt er nie.Dasselb ein jeder merken sollund danken oft.Wer in ihn hofft,der wird nimmer in Schand' gestellt;soll haben acht,daß er betracht',allein zu tun, was ihm gefällt.""^11.Fürstliche Gnad mir g'schehen ist,dieweil ich mich darin ergab,zu dienen untertänigistdem Herren mein und laß nicht ab,voraus so ichseh, daß man michzu Gottes Ehr noch brauchen magmit Chorgesang,den ich jetzt langgetrieben hab und tu's all Tag'.""^12.Liebt mir auch sehr vor andern Ding',die man jetzt treibt in dieser Welt.Denn wer's versteht, der acht's nicht 'ring,wiewohl es nicht ein'm jeden g'fällt.Liegt mir nicht an.Wenn ich nur handie Gnad und Gunst des Herren mein,so acht' ich's nitund b'hilf mich mit,will Gott mein Tag' drum dankbar sein." z2 x12 | %43
w: |
w: |
V:2
 z8 | A8 | G4 C4 | D4 E4 | F3 G AGAB | c4 z2 c2 | BAGF E4 | D4 z2 G2 | FE DC B,2 B2 | AG FE D2 B2 | %10
w: |Lust|hab ich|g'habt zur|Mu- si- ca, * * *|* zur|Mu * * * si-|ca, zur|Mu ­ si ­ ca, zur|Mu ­ si ­ ca von|
w: |von|erst "ut|re mi|fa sol la, * * *|* a||* a|* * * * * a|* * * * a a|
 G2 A4 D2 | D3 E F2 E2 | A3 B G2 F3 x | G E2 D4 z8 |1 z2 D3 C B,A, :|2 G,2 G2 G2 G2 || %16
w: Ju- * gend|auf * * wie|noch * * bis-|* * her,|kam, * * *|* kam es da-|
w: " * ge-|übt, * * da-|nach, _ _ ge-|* * übt,|||
 E2 E2 E2 E2 | C4 z2 E4 | F2 E2 C3 B, x2 | A,G, A,4 x3 | B,2 A,2 z2 D3 | C B,2 A,2 D2 z2 | %22
w: zu, kam es da-|zu, daß|ich kein Ruh, *||kein Ruh, daß|* ich kein Ruh,|
w: ||||||
 D3 C B,2 A,2 | D3 C B,2 A,2 x | D2 z2 D2 x2 | DC B,2 A,2 D2 | z2 D4 E2 | D2 E2 D6 | G6 E4 | %29
w: kein * Ruh mehr|ha- * ­ ben|mocht, kein|* * Ruh * denn|nur im|G'sang stund mein|Be- gier.|
w: |||||||
 z2 E2 x10 | E4 F2 G2 | C2 F2 D3 E | F4 z2 F4 | B,2 F3 EDC | B,A, G,4 x2 | A,4 z2 B,2 | C2 G,2 D4 | %37
w: Da|half nichts für,|da half nichts *|für, da|half nichts * * *||für, aus|dem er- folgt,|
w: ||||||||
 z2 B,2 C2 G,2 | D2 E2 A,2 E2 | F2 C2 D2 A2 | B2 G3 F _ED x | C2 D2 _E2 E2 x7 |] D8 x6 | %43
w: aus dem er-|folgt der erst', er-|folgt der erst' An-|* fang, * * *|* der erst' An-|fang.|
w: ||||||
V:3
 z8 | z8 | z8 | z8 | d8 | c4 F4 | G6 A2 | B4 c4 | d8 | z4 d4 | e4 f4 | g4 c4 | defg e2 d4 | %13
w: ||||Lust|hab ich|g'habt zur|Mu- si-|ca|von|Ju- gend|auf wie|noch * * * bis- her,|
w: ||||von|erst "ut|re mi|fa sol|la,|a|a a|a a|" * * ge- übt, da-|
 cB A2 A2 G8 x |1 G8 :|2 z4 c4 || c4 c4 | A4 z2 A2 x2 | A3 B cd e4 | d4 ^c2 x3 | d8 x | z4 f4 x | %22
w: * * * bis- her,|Lehr|kam|es da-|zu, daß|ich * * * *|* kein|Ruh|mehr|
w: * * nach, ge- *|||||||||
 f4 f4 | d4 z2 d2 x | d3 e fg a2- | a2 g4 ^f2 | g8 | z4 g4 x2 | f2 e2 d4 x2 | c4 z2 A2 x6 | %30
w: ha- ben|mocht, denn|nur * * * *|* * im|G'sang|stund|mein * Be-|gier. Da|
w: ||||||||
 A3 B c2 d2 | A4 B4 | A8 x2 | z4 d4 | d4 ^c4 | d4 z2 d2 | efge f3 e | dcBA GABG | AB c3 B AG | %39
w: half * * *|* nichts|für:|aus|dem er-|folgt der|erst', * * * * *|||
w: |||||||||
 F2 G2 A2 A2 | x8- x | x8- x7 |] x8 x6 | %43
w:    der erst' An-|fang.|||
w: ||||
V:4
 z8 | z8 | z8 | z8 | z8 | A,8 | G,4 C,4 | D,4 E,4 | F,4 G,4 | A,4 B,4 | C4 D4 | G,A,B,C A,2 A,2 | %12
w: |||||Lust|hab ich|g'habt zur|Mu- si-|ca *|    von|Ju * * * * gend|
w: |||||von|erst "ut|re mi|fa sol|la, *|a a|a * * * * a|
 D,3 B,, C,2 D,2 x2 | B,,2 C,2 D,4 x7 |1 z8 :|2 z2 G,2 G,2 G,2 || E,4 z2 C,2 | C,2 C,2 A,,4 x2 | %18
w: auf * * wie|noch bis- her,||kam es da-|zu, kam|es da- zu,|
w: a * * "|ge- übt, da-|||||
 z2 A,,2 A,,3 B,, x2 | C,2 D,2 A,,3 B,, x | C,2 D,2 A,,4 x | z2 D,2 D,3 E, x | F,2 G,2 D,4 | %23
w: daß ich *|* kein Ruh, *|* kein Ruh,|daß ich *|* kein Ruh,|
w: |||||
 z2 D,2 D,3 E, x | F,2 G,2 D,3 E, | F,2 G,2 D,3 E, | F,2 G,2 D,4 | z2 G,2 G,3 A, x2 | %28
w: daß ich *|* kein Ruh *|* mehr ha- *|­ ben mocht,|denn nur *|
w: |||||
 B,2 C2 G,3 A, x2 | B,2 C2 G,4 x6 | z2 A,2 A,3 B, | C3 B, A,2 G,2 | F,4 G,4 x2 | z2 D,2 D,3 E, | %34
w: * im G'sang, *|* im G'sang.|Da half *||nichts für:|aus dem *|
w: ||||||
 F,2 G,2 D,3 E, | F,2 G,2 E,4 | D,3 E, F,2 G,2 | E,4 D,3 E, | F,2 G,2 E,4 | D,2 A,,3 B,, C,2 | %40
w: * er- folgt *|* der erst'|An * * ­|fang, der *|* * erst'|* An- * *|
w: ||||||
"^2.Und 'bald ich das ergriffen hätt,daß ich konnt' von mir selber wohlden G'sang verstehn, danach ich tätmehr fragen, wie denn einer soll,dem solches liebtund sich selbst übt,daß er erlang den rechten Grund.Hub mich dazuespät und auch frue,zu dienen wohl, wie ich nur kunnt,""^3.Dem Herren mein mit ganzem Fleiß,daran er dann ein G'fallen trug.Es schicket sich mit solcher Weis',daß er mir gab zu schreiben g'nug.Was von ihm g'macht,ward wohl betracht',danach ich mich auch richten sollt.Das g'fiel mir sehr,weil er stets mehrmir zeigen tät, was ich nur wollt.""^Akrostichon der Strophenanfänge: LUDWIG SENNFL" D,2 _E,2 D,4 x | %41
w: ­ * fang,|
w: |
 G,3 F, _E,D, C,4 x5 |] B,,2 C,4 G,8 | %43
w: An- * * * *|* * fang.|
w: ||

